src/Assets/layer3.svg

<svg version="1.2" xmlns="http://www.w3.org/2000/svg" viewBox="0 0 900 63" width="900" height="63">
	<title>layer3-svg</title>
	<style>
		.s0 { fill: #202731 } 
		.s1 { fill: #a8a89e } 
		.s2 { fill: #a09e94 } 
		.s3 { fill: #98958a } 
		.s4 { fill: #908b80 } 
		.s5 { fill: #888277 } 
	</style>
	<path id="Layer" class="s0" d="m0 0h900v100h-900z"/>
	<path id="Layer" class="s1" d="m0 35l11.5 0.2c11.5 0.1 34.5 0.5 57.5 0 23-0.5 46-1.9 69.2-0.9 23.1 1 46.5 4.4 69.6 4.9 23.2 0.5 46.2-1.9 69.2-1.7 23 0.2 46 2.8 69 4.5 23 1.7 46 2.3 69.2 2.8 23.1 0.5 46.5 0.9 69.6 0.5 23.2-0.3 46.2-1.3 69.2-2.5 23-1.1 46-2.5 69-4 23-1.5 46-3.1 69.2-4.3 23.1-1.2 46.5-1.8 69.6-0.5 23.2 1.3 46.2 4.7 69.2 4.8 23 0.2 46-2.8 57.5-4.3l11.5-1.5v-33h-11.5c-11.5 0-34.5 0-57.5 0-23 0-46 0-69.2 0-23.1 0-46.5 0-69.6 0-23.2 0-46.2 0-69.2 0q-34.5 0-69 0c-23 0-46 0-69.2 0-23.1 0-46.5 0-69.6 0-23.2 0-46.2 0-69.2 0q-34.5 0-69 0c-23 0-46 0-69.2 0-23.1 0-46.5 0-69.6 0-23.2 0-46.2 0-69.2 0-23 0-46 0-57.5 0h-11.5z"/>
	<path id="Layer" class="s2" d="m0 29l11.5-0.3c11.5-0.4 34.5-1 57.5 0.1 23 1.2 46 4.2 69.2 4.5 23.1 0.4 46.5-2 69.6-2.5 23.2-0.5 46.2 0.9 69.2 0.9 23 0 46-1.4 69-1.2 23 0.2 46 1.8 69.2 1.3 23.1-0.5 46.5-3.1 69.6-3.6 23.2-0.5 46.2 1.1 69.2 1.6 23 0.5 46-0.1 69-0.8 23-0.7 46-1.3 69.2-1.5 23.1-0.2 46.5 0.2 69.6 0 23.2-0.2 46.2-0.8 69.2 0 23 0.8 46 3.2 57.5 4.3l11.5 1.2v-33h-11.5c-11.5 0-34.5 0-57.5 0-23 0-46 0-69.2 0-23.1 0-46.5 0-69.6 0-23.2 0-46.2 0-69.2 0q-34.5 0-69 0c-23 0-46 0-69.2 0-23.1 0-46.5 0-69.6 0-23.2 0-46.2 0-69.2 0q-34.5 0-69 0c-23 0-46 0-69.2 0-23.1 0-46.5 0-69.6 0-23.2 0-46.2 0-69.2 0-23 0-46 0-57.5 0h-11.5z"/>
	<path id="Layer" class="s3" d="m0 29l11.5-1.8c11.5-1.9 34.5-5.5 57.5-7.5 23-2 46-2.4 69.2-0.5 23.1 1.8 46.5 5.8 69.6 5.8 23.2 0 46.2-4 69.2-6 23-2 46-2 69-1.2 23 0.9 46 2.5 69.2 3 23.1 0.5 46.5-0.1 69.6-0.8 23.2-0.7 46.2-1.3 69.2-0.8 23 0.5 46 2.1 69 2.1 23 0 46-1.6 69.2-0.8 23.1 0.8 46.5 4.2 69.6 5.8 23.2 1.7 46.2 1.7 69.2 0.9 23-0.9 46-2.5 57.5-3.4l11.5-0.8v-23h-11.5c-11.5 0-34.5 0-57.5 0-23 0-46 0-69.2 0-23.1 0-46.5 0-69.6 0-23.2 0-46.2 0-69.2 0q-34.5 0-69 0c-23 0-46 0-69.2 0-23.1 0-46.5 0-69.6 0-23.2 0-46.2 0-69.2 0q-34.5 0-69 0c-23 0-46 0-69.2 0-23.1 0-46.5 0-69.6 0-23.2 0-46.2 0-69.2 0-23 0-46 0-57.5 0h-11.5z"/>
	<path id="Layer" class="s4" d="m0 14h11.5c11.5 0 34.5 0 57.5-0.5 23-0.5 46-1.5 69.2-1.5 23.1 0 46.5 1 69.6 2.3 23.2 1.4 46.2 3 69.2 2.4 23-0.7 46-3.7 69-4.2 23-0.5 46 1.5 69.2 1.5 23.1 0 46.5-2 69.6-2 23.2 0 46.2 2 69.2 3.3 23 1.4 46 2 69 2.2 23 0.2 46-0.2 69.2-0.2 23.1 0 46.5 0.4 69.6 0.5 23.2 0.2 46.2 0.2 69.2-0.6 23-0.9 46-2.5 57.5-3.4l11.5-0.8v-13h-11.5c-11.5 0-34.5 0-57.5 0-23 0-46 0-69.2 0-23.1 0-46.5 0-69.6 0-23.2 0-46.2 0-69.2 0q-34.5 0-69 0c-23 0-46 0-69.2 0-23.1 0-46.5 0-69.6 0-23.2 0-46.2 0-69.2 0q-34.5 0-69 0c-23 0-46 0-69.2 0-23.1 0-46.5 0-69.6 0-23.2 0-46.2 0-69.2 0-23 0-46 0-57.5 0h-11.5z"/>
	<path id="Layer" class="s5" d="m0 3l11.5 1c11.5 1 34.5 3 57.5 3.5 23 0.5 46-0.5 69.2 0.2 23.1 0.6 46.5 3 69.6 3.3 23.2 0.3 46.2-1.3 69.2-1.8 23-0.5 46 0.1 69 0.3 23 0.2 46-0.2 69.2-1.5 23.1-1.3 46.5-3.7 69.6-4.7 23.2-1 46.2-0.6 69.2 0.7 23 1.3 46 3.7 69 4.7 23 1 46 0.6 69.2 0 23.1-0.7 46.5-1.7 69.6-1 23.2 0.6 46.2 3 69.2 2.5 23-0.5 46-3.9 57.5-5.5l11.5-1.7v-3h-11.5c-11.5 0-34.5 0-57.5 0-23 0-46 0-69.2 0-23.1 0-46.5 0-69.6 0-23.2 0-46.2 0-69.2 0q-34.5 0-69 0c-23 0-46 0-69.2 0-23.1 0-46.5 0-69.6 0-23.2 0-46.2 0-69.2 0q-34.5 0-69 0c-23 0-46 0-69.2 0-23.1 0-46.5 0-69.6 0-23.2 0-46.2 0-69.2 0-23 0-46 0-57.5 0h-11.5z"/>
</svg>

<svg id="visual" viewBox="0 0 900 100" width="900" height="100" xmlns="http://www.w3.org/2000/svg" xmlns:xlink="http://www.w3.org/1999/xlink" version="1.1"><rect x="0" y="0" width="900" height="100" fill="#202731"></rect><path d="M0 35L11.5 35.2C23 35.3 46 35.7 69 35.2C92 34.7 115 33.3 138.2 34.3C161.3 35.3 184.7 38.7 207.8 39.2C231 39.7 254 37.3 277 37.5C300 37.7 323 40.3 346 42C369 43.7 392 44.3 415.2 44.8C438.3 45.3 461.7 45.7 484.8 45.3C508 45 531 44 554 42.8C577 41.7 600 40.3 623 38.8C646 37.3 669 35.7 692.2 34.5C715.3 33.3 738.7 32.7 761.8 34C785 35.3 808 38.7 831 38.8C854 39 877 36 888.5 34.5L900 33L900 0L888.5 0C877 0 854 0 831 0C808 0 785 0 761.8 0C738.7 0 715.3 0 692.2 0C669 0 646 0 623 0C600 0 577 0 554 0C531 0 508 0 484.8 0C461.7 0 438.3 0 415.2 0C392 0 369 0 346 0C323 0 300 0 277 0C254 0 231 0 207.8 0C184.7 0 161.3 0 138.2 0C115 0 92 0 69 0C46 0 23 0 11.5 0L0 0Z" fill="#a8a89e"></path><path d="M0 29L11.5 28.7C23 28.3 46 27.7 69 28.8C92 30 115 33 138.2 33.3C161.3 33.7 184.7 31.3 207.8 30.8C231 30.3 254 31.7 277 31.7C300 31.7 323 30.3 346 30.5C369 30.7 392 32.3 415.2 31.8C438.3 31.3 461.7 28.7 484.8 28.2C508 27.7 531 29.3 554 29.8C577 30.3 600 29.7 623 29C646 28.3 669 27.7 692.2 27.5C715.3 27.3 738.7 27.7 761.8 27.5C785 27.3 808 26.7 831 27.5C854 28.3 877 30.7 888.5 31.8L900 33L900 0L888.5 0C877 0 854 0 831 0C808 0 785 0 761.8 0C738.7 0 715.3 0 692.2 0C669 0 646 0 623 0C600 0 577 0 554 0C531 0 508 0 484.8 0C461.7 0 438.3 0 415.2 0C392 0 369 0 346 0C323 0 300 0 277 0C254 0 231 0 207.8 0C184.7 0 161.3 0 138.2 0C115 0 92 0 69 0C46 0 23 0 11.5 0L0 0Z" fill="#a09e94"></path><path d="M0 29L11.5 27.2C23 25.3 46 21.7 69 19.7C92 17.7 115 17.3 138.2 19.2C161.3 21 184.7 25 207.8 25C231 25 254 21 277 19C300 17 323 17 346 17.8C369 18.7 392 20.3 415.2 20.8C438.3 21.3 461.7 20.7 484.8 20C508 19.3 531 18.7 554 19.2C577 19.7 600 21.3 623 21.3C646 21.3 669 19.7 692.2 20.5C715.3 21.3 738.7 24.7 761.8 26.3C785 28 808 28 831 27.2C854 26.3 877 24.7 888.5 23.8L900 23L900 0L888.5 0C877 0 854 0 831 0C808 0 785 0 761.8 0C738.7 0 715.3 0 692.2 0C669 0 646 0 623 0C600 0 577 0 554 0C531 0 508 0 484.8 0C461.7 0 438.3 0 415.2 0C392 0 369 0 346 0C323 0 300 0 277 0C254 0 231 0 207.8 0C184.7 0 161.3 0 138.2 0C115 0 92 0 69 0C46 0 23 0 11.5 0L0 0Z" fill="#98958a"></path><path d="M0 14L11.5 14C23 14 46 14 69 13.5C92 13 115 12 138.2 12C161.3 12 184.7 13 207.8 14.3C231 15.7 254 17.3 277 16.7C300 16 323 13 346 12.5C369 12 392 14 415.2 14C438.3 14 461.7 12 484.8 12C508 12 531 14 554 15.3C577 16.7 600 17.3 623 17.5C646 17.7 669 17.3 692.2 17.3C715.3 17.3 738.7 17.7 761.8 17.8C785 18 808 18 831 17.2C854 16.3 877 14.7 888.5 13.8L900 13L900 0L888.5 0C877 0 854 0 831 0C808 0 785 0 761.8 0C738.7 0 715.3 0 692.2 0C669 0 646 0 623 0C600 0 577 0 554 0C531 0 508 0 484.8 0C461.7 0 438.3 0 415.2 0C392 0 369 0 346 0C323 0 300 0 277 0C254 0 231 0 207.8 0C184.7 0 161.3 0 138.2 0C115 0 92 0 69 0C46 0 23 0 11.5 0L0 0Z" fill="#908b80"></path><path d="M0 3L11.5 4C23 5 46 7 69 7.5C92 8 115 7 138.2 7.7C161.3 8.3 184.7 10.7 207.8 11C231 11.3 254 9.7 277 9.2C300 8.7 323 9.3 346 9.5C369 9.7 392 9.3 415.2 8C438.3 6.7 461.7 4.3 484.8 3.3C508 2.3 531 2.7 554 4C577 5.3 600 7.7 623 8.7C646 9.7 669 9.3 692.2 8.7C715.3 8 738.7 7 761.8 7.7C785 8.3 808 10.7 831 10.2C854 9.7 877 6.3 888.5 4.7L900 3L900 0L888.5 0C877 0 854 0 831 0C808 0 785 0 761.8 0C738.7 0 715.3 0 692.2 0C669 0 646 0 623 0C600 0 577 0 554 0C531 0 508 0 484.8 0C461.7 0 438.3 0 415.2 0C392 0 369 0 346 0C323 0 300 0 277 0C254 0 231 0 207.8 0C184.7 0 161.3 0 138.2 0C115 0 92 0 69 0C46 0 23 0 11.5 0L0 0Z" fill="#888277"></path></svg>
